/* XPM */
static char * udg_image[] = {
"14 14 17 1",
". c None",
"0 c #000000",
"1 c #0000CD",
"2 c #CD0000",
"3 c #CD00CD",
"4 c #00CD00",
"5 c #00CDCD",
"6 c #CDCD00",
"7 c #CDCDCD",
"8 c #161616",
"9 c #0000FF",
"A c #FF0000",
"B c #FF00FF",
"C c #00FF00",
"D c #00FFFF",
"E c #FFFF00",
"F c #FFFFFF",
"666EE..A.AA...",
"666E..AA2AA...",
"66E..AA222A...",
"EE..AA22222A..",
"...AA2222222A.",
"..AA222222222.",
".AA2222222222.",
"..AA2AA2AA2AA.",
"..2A22A22A22A.",
"..AA2AA2AA2AA.",
"..2A22A22A22A.",
"333333BBBB3333",
"B3BB3BBBBBBBBB",
"3333BBB3333333"
};
